X:93
T:Golden Eagle, The
R:hornpipe
H:Also played in A, #79
Z:id:hn-hornpipe-93
M:C|
K:G
BA|GB,DG BDGB|dGBd gbag|fedB cAFA|GBAG (3FED (3cBA|
GB,DG BDGB|dGBd gbag|fedB cAFA|(3GAG FA G2:|
|:(3bbb|bB^df bagf|e^def gfg^g|aA^ce agfe|ed^ce d2ab|
c'afd ^cdef|gfga bgag|fedB cAFA|(3GAG FA G2:|
<end>
<start>
